X: 40163
T: Tim O'Leary's
R: mazurka
M: 3/4
K: Gmajor
BA|G3 DGB|d4 ga|ba g2 f2|g4 d2|
e2 cdef|g3 f ge|dcBd g2|
A DFAd B|G3 DGB|d4 ga|ba g2 f2|g4 d2|
e2 cdeg|d2 c2 A2|A2 G2 F2|1 G3 A:|2
f2 dAdf|a2 f2 d2|B3 dga|b2 g2 d2|e2 g2 c'2|
b2 g2 d2|a2 f2 d2|d2 c2 B2|
c2 Gceg|B2 GBdg|A2 f2 A2|F2 E2 D2|ECEF G2|
FDFG A2|B2 G2 F2|1 G4 g2:|2 G3 A:|

